X: 233
M: 6/8
L: 1/8
K: G
dBG dBG | {F}E3 e3 | dcB ABG | (G3 F2)B/c/ |\
dBG dBG | {F}E3 e3 | dcB AGF | (E3 G2) :|
|: B/c/ |\
ded gab | ded dBc | ded gab | ded dBc |\
dBG dBG | {F}E3 e3 | dcB AGF | (E3 G2) :|

